pages/travel-inside/img/svg/tap.svg

<svg width="25" height="25" viewBox="0 0 25 25" fill="none" xmlns="http://www.w3.org/2000/svg">
<g clip-path="url(#clip0)">
<path d="M21.0459 16.0215V11.9017C21.0459 10.7241 20.4241 9.77052 19.3824 9.35075C18.8216 9.12477 18.2411 9.10329 17.7863 9.26945C17.579 9.00578 17.3054 8.78493 16.9768 8.62409C16.3508 8.31775 15.6432 8.2757 15.0779 8.48728C14.7836 8.13957 14.3715 7.88069 13.8753 7.75237C13.46 7.64495 13.0519 7.64553 12.7014 7.73874L12.6199 3.99325C12.5962 2.904 11.7649 2.05078 10.7274 2.05078C9.68381 2.05078 8.83479 2.92695 8.83479 4.0039V13.3538C8.63796 13.1583 8.49197 12.9519 8.34158 12.7394C7.96824 12.2116 7.54515 11.6135 6.38773 11.3639C5.40746 11.1525 4.56318 11.6384 4.1936 12.1793C3.90131 12.6071 3.87705 13.0897 4.12875 13.4702C4.20302 13.5824 4.28989 13.6941 4.38188 13.8124C4.68324 14.1998 5.09594 14.7304 5.50014 15.8399C6.06312 17.3853 7.03548 18.0826 7.81683 18.643C8.57048 19.1834 9.13972 19.5922 9.27292 20.607C9.01838 20.6237 8.81697 20.8349 8.81697 21.0937V24.5116C8.81697 24.7813 9.03562 24.9999 9.30525 24.9999H20.1073C20.3769 24.9999 20.5956 24.7813 20.5956 24.5116V21.0937C20.5956 20.8338 20.3925 20.622 20.1365 20.6068C20.2014 19.9846 20.3765 19.351 20.5601 18.6879C20.799 17.8252 21.0459 16.9332 21.0459 16.0215ZM19.619 24.0233H9.79357V21.5819H12.5088C12.7785 21.5819 12.9971 21.3633 12.9971 21.0936C12.9971 20.8239 12.7785 20.6053 12.5088 20.6053H10.2555C10.1029 19.0817 9.23157 18.4557 8.38601 17.8493C7.64441 17.3175 6.87747 16.7676 6.41776 15.5056C5.96102 14.2519 5.47465 13.6266 5.15272 13.2127C5.06908 13.1052 4.99687 13.0124 4.9433 12.9313C4.90468 12.873 4.99013 12.7446 4.99999 12.7302C5.19232 12.4485 5.67191 12.2085 6.18187 12.3185C6.96756 12.4879 7.197 12.8123 7.54437 13.3033C7.82146 13.695 8.15896 14.1721 8.83479 14.5811V14.7826C8.83479 15.0522 9.05344 15.2708 9.32307 15.2708C9.5927 15.2708 9.81135 15.0522 9.81135 14.7826V4.0039C9.81135 3.46542 10.2223 3.02734 10.7274 3.02734C11.2208 3.02734 11.6318 3.47021 11.6436 4.01449L11.784 10.4719C11.7899 10.7415 12.0121 10.9571 12.2828 10.9495C12.5524 10.9436 12.7662 10.7203 12.7604 10.4507L12.7242 8.78674C12.8824 8.65866 13.2397 8.59665 13.6308 8.69782C13.8585 8.75671 14.6013 9.01584 14.6013 9.87838C14.6013 10.1481 14.82 10.3667 15.0896 10.3667C15.3592 10.3667 15.5779 10.1481 15.5779 9.87838C15.5779 9.70319 15.5583 9.53356 15.5207 9.37135C15.8231 9.29523 16.2142 9.33815 16.5475 9.50128C16.8139 9.63161 17.2607 9.94552 17.2607 10.5833C17.2607 10.853 17.4793 11.0716 17.749 11.0716C18.0186 11.0716 18.2372 10.853 18.2372 10.5833C18.2372 10.4399 18.2236 10.2997 18.1969 10.1638C18.4049 10.1145 18.7073 10.1316 19.0173 10.2565C19.3337 10.3839 20.0694 10.7995 20.0694 11.9016V16.0215C20.0694 16.8005 19.8506 17.5907 19.6189 18.4272C19.4229 19.1351 19.2219 19.8631 19.1559 20.6052H16.9034C16.6337 20.6052 16.4151 20.8238 16.4151 21.0935C16.4151 21.3632 16.6337 21.5818 16.9034 21.5818H19.619V24.0233Z" fill="white"/>
<path d="M7.21191 4.49233C7.48154 4.49233 7.7002 4.27373 7.7002 4.00405C7.7002 2.33467 9.05825 0.976562 10.7276 0.976562C12.397 0.976562 13.7551 2.33467 13.7551 4.00405C13.7551 4.27373 13.9738 4.49233 14.2434 4.49233C14.513 4.49233 14.7317 4.27373 14.7317 4.00405C14.7317 1.79619 12.9355 0 10.7276 0C8.51982 0 6.72363 1.79619 6.72363 4.00405C6.72363 4.27373 6.94224 4.49233 7.21191 4.49233Z" fill="white"/>
<path d="M14.7063 20.6052H14.7059C14.4362 20.6052 14.2178 20.8238 14.2178 21.0935C14.2178 21.3632 14.4366 21.5818 14.7063 21.5818C14.9759 21.5818 15.1945 21.3632 15.1945 21.0935C15.1945 20.8238 14.9759 20.6052 14.7063 20.6052Z" fill="white"/>
</g>
<defs>
<clipPath id="clip0">
<rect width="25" height="25" fill="white"/>
</clipPath>
</defs>
</svg>

<svg xmlns="http://www.w3.org/2000/svg" width="25" height="25" fill="#fff"><path d="M21.05 16.02V11.9c0-1.18-.63-2.13-1.67-2.55a2.27 2.27 0 00-1.6-.08 2.45 2.45 0 00-2.7-.78c-.3-.35-.7-.6-1.2-.74-.42-.1-.83-.1-1.18-.01l-.08-3.75a1.93 1.93 0 00-1.9-1.94c-1.04 0-1.89.88-1.89 1.95v9.35c-.2-.2-.34-.4-.49-.61a2.87 2.87 0 00-1.95-1.38 2.15 2.15 0 00-2.2.82c-.29.43-.31.91-.06 1.29l.25.34c.3.39.72.92 1.12 2.03.56 1.55 1.54 2.24 2.32 2.8.75.54 1.32.95 1.45 1.97a.49.49 0 00-.45.48v3.42c0 .27.22.49.49.49h10.8c.27 0 .49-.22.49-.49V21.1c0-.26-.2-.47-.46-.48.06-.63.24-1.26.42-1.92.24-.86.49-1.76.49-2.67zm-1.43 8H9.79v-2.44h2.72a.49.49 0 100-.97h-2.25c-.16-1.53-1.03-2.15-1.87-2.76-.75-.53-1.51-1.08-1.97-2.34-.46-1.26-.95-1.88-1.27-2.3l-.2-.28c-.05-.06.04-.19.05-.2.2-.28.67-.52 1.18-.41.79.17 1.02.5 1.36.98.28.4.62.87 1.3 1.28v.2a.49.49 0 00.97 0V4c0-.53.41-.97.92-.97.5 0 .9.44.91.98l.14 6.46a.49.49 0 10.98-.02l-.04-1.66c.16-.13.52-.2.91-.1.23.07.97.33.97 1.19a.49.49 0 00.98 0c0-.18-.02-.35-.06-.5.3-.08.7-.04 1.03.12.26.13.71.45.71 1.08a.49.49 0 10.98 0c0-.14-.02-.28-.04-.42a1.67 1.67 0 011.87 1.74v4.12c0 .78-.22 1.57-.45 2.4-.2.72-.4 1.44-.46 2.19H16.9a.49.49 0 100 .97h2.72v2.44z"/><path d="M7.21 4.5c.27 0 .49-.23.49-.5a3.03 3.03 0 016.06 0 .49.49 0 00.97 0 4 4 0 00-8 0c0 .27.21.5.48.5zM14.7 20.6a.49.49 0 100 .98.49.49 0 000-.97z"/></svg>
